X: 8
T: Acem Ülkesinde
C: (Anonim)
O: Turkey
F: http://compmusic.upf.edu/node/140
N: segah--turku--nimsofyan--acem_ulkesinde--erzurum
N: makam= segah
N: form= turku
N: usul= nimsofyan = 2/4
M: 2/4
L: 1/16
K: C _1/4B _1/4e ^f 
Q: 1/4=51
%%MIDI tuningsystem comma53
d2d2d2d2 ed2Bc2B2  | d2d2d2d2 ed2Bc2B2  | \
w:  ARANAĞME  |  ARANAĞME  | 
z2cde=f/g/f/e/d c{e}d2Bc2B2  | 
w:   | 
d2d2d4 ed2Bc2B2  | z2cde=f/g/f/e/d c{e}d2Bc2B2  | 
w:   |   | 
z2cde2e2 e4{=f}ed{e}d2  | de2=f{g}ed{e}d2 de2f{g}ed{e}d2  | 
w:  A cem_ ül ke sin *  de   |  uy_ am man_ *  am *  *  man  yâr_ am man_ *  am *  *  man    | 
{c}d2d2{d}gf{g}ed d2ddc2B2  | z2dcd3B cddBc2B2  | 
w:  *  Ey leş *  tim  *  *  gal *  dım  se ne  gur ban    |  Gel  *  gel  *  he le  he le  gel    | 
z2dcd3B cddBc2B2  | z2cde=f{g}ed cddBc2B2  | 
w:  Gel  *  gel  *  he le  he le  gel    |  A man_ Al *  *  lah  *  ö lü rem  *  gel    | 
z2cde=f{g}ed cddBc2B2  | d2d2d2d2 ed2Bc2B2  | 
w:  A man_ Al *  *  lah  *  ya nı ram  *  gel    |  ARANAĞME  | 
d2d2d2d2 ed2Bc2B2  | z2cde=f/g/f/e/d c{e}d2Bc2B2  | 
w:  ARANAĞME  |   | 
d2d2d4 ed2Bc2B2  | z2cde=f/g/f/e/d c{e}d2Bc2B2  | 
w:   |   | 
z2cde2e2 e4{=f}ed{e}d2  | de2=f{g}ed{e}d2 de2f{g}ed{e}d2  | 
w:  A cem_ ül ke sin *  de   |  uy_ am man_ *  am *  *  man  yâr_ am man_ *  am *  *  man    | 
{c}d2d2{d}gf{g}ed d2ddc2B2  | z2dcd3B cddBc2B2  | 
w:  *  Ey leş *  tim  *  *  gal *  dım  se ne  gur ban    |  Gel  *  gel  *  he le  he le  gel    | 
z2dcd3B cddBc2B2  | z2cde=f{g}ed cddBc2B2  | 
w:  Gel  *  gel  *  he le  he le  gel    |  A man_ Al *  *  lah  *  ö lü rem  *  gel    | 
z2cde=f{g}ed cddBc2B2  | |


